poi/svg/1509.svg

<?xml version="1.0" encoding="UTF-8" standalone="no"?>
<svg
   xmlns:dc="http://purl.org/dc/elements/1.1/"
   xmlns:cc="http://creativecommons.org/ns#"
   xmlns:rdf="http://www.w3.org/1999/02/22-rdf-syntax-ns#"
   xmlns:svg="http://www.w3.org/2000/svg"
   xmlns="http://www.w3.org/2000/svg"
   xmlns:sodipodi="http://sodipodi.sourceforge.net/DTD/sodipodi-0.dtd"
   xmlns:inkscape="http://www.inkscape.org/namespaces/inkscape"
   inkscape:version="1.0 (4035a4fb49, 2020-05-01)"
   sodipodi:docname="1509.svg"
   id="svg20"
   version="1.2"
   viewBox="0 0 42.519639 42.519639"
   height="14.999999mm"
   width="14.999999mm">
  <metadata
     id="metadata24">
    <rdf:RDF>
      <cc:Work
         rdf:about="">
        <dc:format>image/svg+xml</dc:format>
        <dc:type
           rdf:resource="http://purl.org/dc/dcmitype/StillImage" />
        <dc:title>Qt SVG Document</dc:title>
      </cc:Work>
    </rdf:RDF>
  </metadata>
  <sodipodi:namedview
     inkscape:current-layer="svg20"
     inkscape:window-maximized="0"
     inkscape:window-y="0"
     inkscape:window-x="0"
     inkscape:cy="28.346482"
     inkscape:cx="28.346482"
     inkscape:zoom="5.8410537"
     showgrid="false"
     id="namedview22"
     inkscape:window-height="480"
     inkscape:window-width="1034"
     inkscape:pageshadow="2"
     inkscape:pageopacity="0"
     guidetolerance="10"
     gridtolerance="10"
     objecttolerance="10"
     borderopacity="1"
     bordercolor="#666666"
     pagecolor="#ffffff" />
  <title
     id="title2">Qt SVG Document</title>
  <desc
     id="desc4">Generated with Qt</desc>
  <defs
     id="defs6" />
  <g
     transform="translate(5.25984,5.25984)"
     id="g18"
     stroke-linejoin="bevel"
     stroke-linecap="square"
     fill-rule="evenodd"
     stroke-width="1"
     stroke="#000000"
     fill="none">
    <g
       id="g10"
       font-style="normal"
       font-weight="400"
       font-size="7.8px"
       font-family="'MS Shell Dlg 2'"
       stroke="none"
       fill-opacity="1"
       fill="#4c62ad">
      <path
         id="path8"
         d="M 37.2598,16 C 37.2598,27.7415 27.7415,37.2598 16,37.2598 4.25851,37.2598 -5.25984,27.7415 -5.25984,16 -5.25984,4.25851 4.25851,-5.25984 16,-5.25984 27.7415,-5.25984 37.2598,4.25851 37.2598,16"
         fill-rule="evenodd"
         vector-effect="non-scaling-stroke" />
    </g>
    <g
       id="g14"
       font-style="normal"
       font-weight="400"
       font-size="7.8px"
       font-family="'MS Shell Dlg 2'"
       transform="translate(15.4331,12.0315)"
       stroke="none"
       fill-opacity="0.94902"
       fill="#ffffff">
      <path
         id="path12"
         d="M 7.96973,1.08643 H -7.39941 v -3.82129 h 0.5249 c 0,-0.39193 0.03499,-0.78386 0.10498,-1.17578 0.06999,-0.39193 0.18196,-0.75586 0.33594,-1.0918 0.19596,-0.34994 0.38842,-0.67538 0.57739,-0.97632 0.18896,-0.30094 0.40942,-0.59139 0.66138,-0.87134 0.25195,-0.26595 0.5284,-0.5214 0.82934,-0.76636 0.30095,-0.24495 0.62638,-0.45141 0.97632,-0.61938 0.37793,-0.22396 0.73836,-0.38843 1.0813,-0.49341 0.34293,-0.10498 0.71037,-0.19946 1.10229,-0.28345 l -0.16797,6.27784 H 1.60791 L 1.41895,-9.0127 c 0.43391,0.08399 0.82934,0.17847 1.18627,0.28345 0.35694,0.10498 0.72437,0.26945 1.1023,0.49341 0.33594,0.16797 0.65438,0.37443 0.95532,0.61938 0.30095,0.24496 0.58439,0.50041 0.85034,0.76636 0.25196,0.27995 0.47242,0.5704 0.66138,0.87134 0.18897,0.30094 0.35343,0.62638 0.49341,0.97632 0.16797,0.33594 0.28345,0.69987 0.34643,1.0918 0.06299,0.39192 0.09449,0.78385 0.09449,1.17578 H 7.96973 V 1.08643 M -9.37305,13.915 V 5.70557 h 1.72168 V 13.915 h -1.72168 m 4.01026,0 V 5.70557 H 10.1533 V 13.915 H -5.36279 M 4.56836,10.2617 H 7.96973 V 7.1123 H 4.56836 v 3.1494 m -5.85791,0 H 2.11182 V 7.1123 h -3.40137 v 3.1494 M 10.8462,4.48779 H -10.1919 V 2.22021 h 21.0381 v 2.26758 m 0.5039,10.01511 v 1.1758 h -22.7388 v -1.1758 h 22.7388"
         fill-rule="evenodd"
         vector-effect="none" />
    </g>
    <g
       id="g16"
       font-style="normal"
       font-weight="400"
       font-size="7.8px"
       font-family="'MS Shell Dlg 2'"
       stroke="none"
       fill-opacity="1"
       fill="#4c62ad" />
  </g>
</svg>

<?xml version="1.0" encoding="UTF-8" standalone="no"?>
<svg width="11.2889mm" height="11.2889mm"
 viewBox="0 0 32 32"
 xmlns="http://www.w3.org/2000/svg" xmlns:xlink="http://www.w3.org/1999/xlink"  version="1.2" baseProfile="tiny">
<title>Qt SVG Document</title>
<desc>Generated with Qt</desc>
<defs>
</defs>
<g fill="none" stroke="black" stroke-width="1" fill-rule="evenodd" stroke-linecap="square" stroke-linejoin="bevel" >

<g fill="#4c62ad" fill-opacity="1" stroke="none" transform="matrix(1,0,0,1,0,0)"
font-family="MS Shell Dlg 2" font-size="7.8" font-weight="400" font-style="normal" 
>
<path vector-effect="non-scaling-stroke" fill-rule="evenodd" d="M37.2598,16 C37.2598,27.7415 27.7415,37.2598 16,37.2598 C4.25851,37.2598 -5.25984,27.7415 -5.25984,16 C-5.25984,4.25851 4.25851,-5.25984 16,-5.25984 C27.7415,-5.25984 37.2598,4.25851 37.2598,16 "/>
</g>

<g fill="#ffffff" fill-opacity="0.94902" stroke="none" transform="matrix(1,0,0,1,15.4331,12.0315)"
font-family="MS Shell Dlg 2" font-size="7.8" font-weight="400" font-style="normal" 
>
<path vector-effect="none" fill-rule="evenodd" d="M7.96973,1.08643 L-7.39941,1.08643 L-7.39941,-2.73486 L-6.87451,-2.73486 C-6.87451,-3.12679 -6.83952,-3.51872 -6.76953,-3.91064 C-6.69954,-4.30257 -6.58757,-4.6665 -6.43359,-5.00244 C-6.23763,-5.35238 -6.04517,-5.67782 -5.8562,-5.97876 C-5.66724,-6.2797 -5.44678,-6.57015 -5.19482,-6.8501 C-4.94287,-7.11605 -4.66642,-7.3715 -4.36548,-7.61646 C-4.06453,-7.86141 -3.7391,-8.06787 -3.38916,-8.23584 C-3.01123,-8.4598 -2.6508,-8.62427 -2.30786,-8.72925 C-1.96493,-8.83423 -1.59749,-8.92871 -1.20557,-9.0127 L-1.37354,-2.73486 L1.60791,-2.73486 L1.41895,-9.0127 C1.85286,-8.92871 2.24829,-8.83423 2.60522,-8.72925 C2.96216,-8.62427 3.32959,-8.4598 3.70752,-8.23584 C4.04346,-8.06787 4.3619,-7.86141 4.66284,-7.61646 C4.96379,-7.3715 5.24723,-7.11605 5.51318,-6.8501 C5.76514,-6.57015 5.9856,-6.2797 6.17456,-5.97876 C6.36353,-5.67782 6.52799,-5.35238 6.66797,-5.00244 C6.83594,-4.6665 6.95142,-4.30257 7.0144,-3.91064 C7.07739,-3.51872 7.10889,-3.12679 7.10889,-2.73486 L7.96973,-2.73486 L7.96973,1.08643 M-9.37305,13.915 L-9.37305,5.70557 L-7.65137,5.70557 L-7.65137,13.915 L-9.37305,13.915 M-5.36279,13.915 L-5.36279,5.70557 L10.1533,5.70557 L10.1533,13.915 L-5.36279,13.915 M4.56836,10.2617 L7.96973,10.2617 L7.96973,7.1123 L4.56836,7.1123 L4.56836,10.2617 M-1.28955,10.2617 L2.11182,10.2617 L2.11182,7.1123 L-1.28955,7.1123 L-1.28955,10.2617 M10.8462,4.48779 L-10.1919,4.48779 L-10.1919,2.22021 L10.8462,2.22021 L10.8462,4.48779 M11.3501,14.5029 L11.3501,15.6787 L-11.3887,15.6787 L-11.3887,14.5029 L11.3501,14.5029"/>
</g>

<g fill="#4c62ad" fill-opacity="1" stroke="none" transform="matrix(1,0,0,1,0,0)"
font-family="MS Shell Dlg 2" font-size="7.8" font-weight="400" font-style="normal" 
>
</g>
</g>
</svg>
